;FLAVOR:Marlin
;TIME:1459
;Filament used: 1.65971m
;Layer height: 0.2
;MINX:75.541
;MINY:72.938
;MINZ:0.3
;MAXX:124.452
;MAXY:127.053
;MAXZ:9.9
;Generated with Cura_SteamEngine 4.3.0
M140 S50
M105
M190 S50
M104 S2
M105
M109 S2
M82 ;absolute extrusion mode
G28 ;Home
G1 Z15.0 F6000 ;Move the platform down 15mm
;Prime the extruder
G92 E0
G1 F200 E3
G92 E0
G92 E0
G92 E0
G1 F1500 E-6.5
;LAYER_COUNT:49
;LAYER:0
M107 P1
G0 F3600 X77.668 Y75.536 Z0.3
;TYPE:SKIRT
G1 F1500 E0
G1 F1800 X77.88 Y75.319 E0.01514
G1 X78.255 Y74.966 E0.04083
G1 X78.624 Y74.662 E0.06468
G1 X79.077 Y74.337 E0.0925
G1 X79.451 Y74.102 E0.11453
G1 X79.768 Y73.929 E0.13255
G1 X79.89 Y73.866 E0.1394
G1 X80.075 Y73.774 E0.14971
G1 X80.423 Y73.623 E0.16863
G1 X80.751 Y73.501 E0.18609
G1 X80.868 Y73.46 E0.19228
G1 X81.126 Y73.374 E0.20585
G1 X81.304 Y73.319 E0.21514
G1 X81.528 Y73.257 E0.22674
G1 X81.62 Y73.233 E0.23148
G1 X82.087 Y73.117 E0.25549
G1 X82.616 Y73.027 E0.28226
G1 X82.913 Y73.011 E0.2971
G1 X83.515 Y73.004 E0.32713
G1 X83.671 Y73.006 E0.33492
G1 X84.733 Y73.04 E0.38793
G1 X87.44 Y73.087 E0.523
G1 X90.198 Y73.055 E0.66061
G1 X92.197 Y72.985 E0.7604
G1 X92.937 Y72.952 E0.79735
G1 X93.031 Y72.949 E0.80205
G1 X93.558 Y72.939 E0.82834
G1 X93.652 Y72.938 E0.83303
G1 X94.34 Y72.943 E0.86736
G1 X94.4 Y72.944 E0.87035
G1 X97.472 Y73.017 E1.02366
G1 X97.5 Y73.018 E1.02506
G1 X98.355 Y73.045 E1.06773
G1 X101.125 Y73.108 E1.20596
G1 X103.69 Y73.097 E1.33393
G1 X106.071 Y73.056 E1.45274
G1 X106.119 Y73.055 E1.45514
G1 X107.93 Y73.048 E1.54549
G1 X109.859 Y73.006 E1.64175
G1 X109.938 Y73.005 E1.64569
G1 X111.002 Y73.005 E1.69877
G1 X111.703 Y73.014 E1.73375
G1 X112.392 Y73.09 E1.76833
G1 X112.675 Y73.149 E1.78275
G1 X112.796 Y73.176 E1.78894
G1 X113.09 Y73.248 E1.80404
G1 X113.783 Y73.495 E1.84075
G1 X113.953 Y73.576 E1.85014
G1 X114.418 Y73.842 E1.87687
G1 X114.923 Y74.254 E1.90938
G1 X115.12 Y74.447 E1.92314
G1 X115.474 Y74.85 E1.9499
G1 X115.765 Y75.301 E1.97668
G1 X115.904 Y75.588 E1.99259
G1 X116.024 Y75.865 E2.00765
G1 X116.097 Y76.046 E2.01739
G1 X116.167 Y76.235 E2.02744
G1 X116.326 Y76.802 E2.05682
G1 X116.427 Y77.325 E2.0834
G1 X116.436 Y77.375 E2.08593
G1 X116.725 Y78.991 E2.16783
G1 X117.276 Y81.651 E2.30336
G1 X117.901 Y84.287 E2.43851
G1 X118.617 Y86.964 E2.57676
G1 X119.383 Y89.535 E2.7106
G1 X120.248 Y92.164 E2.84868
G1 X121.162 Y94.699 E2.98312
G1 X122.169 Y97.263 E3.12055
G1 X123.417 Y100.177 E3.27871
G1 X123.459 Y100.277 E3.28412
G1 X123.582 Y100.59 E3.3009
G1 X123.621 Y100.694 E3.30644
G1 X124.246 Y102.441 E3.399
G1 X124.388 Y102.958 E3.42575
G1 X124.452 Y103.491 E3.45254
G1 X124.425 Y104.123 E3.48409
G1 X124.371 Y104.534 E3.50478
G1 X124.262 Y105.059 E3.53153
G1 X124.076 Y105.562 E3.55828
G1 X123.749 Y106.132 E3.59107
G1 X123.479 Y106.517 E3.61453
G1 X123.437 Y106.577 E3.61818
G1 X121.61 Y109.072 E3.77246
G1 X121.38 Y109.4 E3.79245
G1 X121.351 Y109.441 E3.79495
G1 X120.54 Y110.564 E3.86406
G1 X120.481 Y110.642 E3.86894
G1 X119.907 Y111.393 E3.9161
G1 X119.707 Y111.633 E3.93169
G1 X119.376 Y111.996 E3.9562
G1 X117.588 Y114.022 E4.09101
G1 X115.815 Y116.147 E4.22908
G1 X114.14 Y118.273 E4.36411
G1 X113.435 Y119.193 E4.42194
G1 X113.377 Y119.268 E4.42667
G1 X113.025 Y119.703 E4.45458
G1 X112.889 Y119.86 E4.46495
G1 X112.728 Y120.037 E4.47688
G1 X112.688 Y120.081 E4.47985
G1 X111.827 Y120.997 E4.54257
G1 X111.782 Y121.044 E4.54581
G1 X110.738 Y122.115 E4.62043
G1 X110.665 Y122.188 E4.62558
G1 X110.151 Y122.686 E4.66129
G1 X110.069 Y122.762 E4.66687
G1 X109.824 Y122.985 E4.68339
G1 X109.75 Y123.051 E4.68834
G1 X108.508 Y124.121 E4.77013
G1 X107.599 Y124.914 E4.83031
G1 X107.576 Y124.933 E4.8318
G1 X106.584 Y125.784 E4.89701
G1 X106.332 Y125.982 E4.913
G1 X105.846 Y126.329 E4.94279
G1 X105.387 Y126.607 E4.96956
G1 X104.718 Y126.868 E5.00539
G1 X104.52 Y126.923 E5.01564
G1 X103.994 Y127.027 E5.04239
G1 X103.458 Y127.053 E5.06916
G1 X102.924 Y126.998 E5.09594
G1 X102.405 Y126.865 E5.12267
G1 X102.151 Y126.769 E5.13622
G1 X101.941 Y126.68 E5.1476
G1 X101.464 Y126.434 E5.17438
G1 X101.029 Y126.121 E5.20111
G1 X100.576 Y125.665 E5.23318
G1 X100.4 Y125.453 E5.24693
G1 X100.313 Y125.343 E5.25392
G1 X98.623 Y123.138 E5.39253
G1 X96.909 Y121.03 E5.52807
G1 X95.129 Y118.963 E5.66416
G1 X93.295 Y116.952 E5.79995
G1 X91.384 Y114.97 E5.93731
G1 X90.006 Y113.621 E6.03352
G1 X89.966 Y113.581 E6.03634
G1 X89.659 Y113.271 E6.0581
G1 X89.311 Y112.863 E6.08486
G1 X89.106 Y112.55 E6.10352
G1 X88.509 Y111.525 E6.1627
G1 X88.482 Y111.477 E6.16545
G1 X88.327 Y111.202 E6.1812
G1 X86.937 Y108.887 E6.31592
G1 X85.465 Y106.587 E6.45215
G1 X83.922 Y104.319 E6.58901
G1 X82.321 Y102.103 E6.7254
G1 X80.886 Y100.235 E6.84292
G1 X80.818 Y100.143 E6.84862
G1 X80.11 Y99.158 E6.90914
G1 X80.033 Y99.048 E6.91584
G1 X79.668 Y98.498 E6.94878
G1 X79.603 Y98.396 E6.95481
G1 X79.497 Y98.224 E6.96489
G1 X79.403 Y98.062 E6.97423
G1 X79.222 Y97.731 E6.99305
G1 X79.169 Y97.63 E6.99875
G1 X79.007 Y97.31 E7.01664
G1 X78.931 Y97.151 E7.02543
G1 X78.749 Y96.743 E7.04772
G1 X78.721 Y96.676 E7.05134
G1 X78.164 Y95.357 E7.12278
G1 X78.111 Y95.226 E7.12983
G1 X77.874 Y94.597 E7.16336
G1 X77.796 Y94.366 E7.17552
G1 X77.429 Y93.147 E7.23904
G1 X77.374 Y92.943 E7.24958
G1 X77.319 Y92.712 E7.26142
G1 X77.287 Y92.562 E7.26908
G1 X77.156 Y91.885 E7.30348
G1 X77.139 Y91.792 E7.3082
G1 X77.012 Y91.029 E7.34679
G1 X76.999 Y90.946 E7.35098
G1 X76.931 Y90.469 E7.37501
G1 X76.918 Y90.367 E7.38014
G1 X76.784 Y89.185 E7.43949
G1 X76.44 Y86.492 E7.57494
G1 X76.012 Y83.763 E7.71275
G1 X75.858 Y82.939 E7.75457
G1 X75.85 Y82.899 E7.75661
G1 X75.604 Y81.499 E7.82753
G1 X75.551 Y80.966 E7.85425
G1 X75.541 Y80.564 E7.87431
G1 X75.587 Y79.893 E7.90787
G1 X75.659 Y79.453 E7.93011
G1 X75.74 Y79.083 E7.94901
G1 X75.863 Y78.634 E7.97223
G1 X75.943 Y78.379 E7.98557
G1 X76.12 Y77.881 E8.01193
G1 X76.439 Y77.212 E8.04891
G1 X76.774 Y76.663 E8.081
G1 X77.057 Y76.263 E8.10544
G1 X77.41 Y75.83 E8.13331
G1 X77.52 Y75.701 E8.14177
G1 X77.668 Y75.536 E8.15283
G0 F3600 X77.966 Y75.803
G1 F1800 X78.155 Y75.61 E8.16631
G1 X78.53 Y75.257 E8.192
G1 X78.858 Y74.987 E8.2132
G1 X79.311 Y74.662 E8.24101
G1 X79.643 Y74.453 E8.26058
G1 X79.96 Y74.28 E8.2786
G1 X80.068 Y74.224 E8.28467
G1 X80.253 Y74.132 E8.29498
G1 X80.562 Y73.998 E8.31178
G1 X80.89 Y73.876 E8.32924
G1 X80.994 Y73.839 E8.33475
G1 X81.252 Y73.753 E8.34831
G1 X81.41 Y73.705 E8.35655
G1 X81.634 Y73.643 E8.36815
G1 X81.717 Y73.621 E8.37243
G1 X82.184 Y73.505 E8.39644
G1 X82.918 Y73.411 E8.43336
G1 X83.52 Y73.404 E8.46339
G1 X83.659 Y73.406 E8.47033
G1 X84.681 Y73.439 E8.52134
G1 X84.681 Y73.438 E8.52139
G1 X87.473 Y73.486 E8.66071
G1 X90.216 Y73.455 E8.79757
G1 X92.18 Y73.386 E8.89561
G1 X92.955 Y73.351 E8.93431
G1 X93.038 Y73.349 E8.93846
G1 X93.565 Y73.339 E8.96475
G1 X93.649 Y73.338 E8.96894
G1 X94.337 Y73.343 E9.00327
G1 X94.39 Y73.344 E9.00591
G1 X97.462 Y73.417 E9.15922
G1 X97.487 Y73.418 E9.16047
G1 X98.341 Y73.445 E9.2031
G1 X101.117 Y73.508 E9.34163
G1 X103.65 Y73.497 E9.468
G1 X106.078 Y73.455 E9.58915
G1 X106.121 Y73.455 E9.5913
G1 X107.94 Y73.448 E9.68205
G1 X109.868 Y73.406 E9.77826
G1 X109.938 Y73.405 E9.78175
G1 X110.997 Y73.405 E9.83459
G1 X111.698 Y73.414 E9.86956
G1 X112.31 Y73.481 E9.90028
G1 X112.593 Y73.54 E9.9147
G1 X112.701 Y73.565 E9.92023
G1 X112.995 Y73.637 E9.93533
G1 X113.61 Y73.856 E9.9679
G1 X113.78 Y73.937 E9.9773
G1 X114.218 Y74.19 E10.00253
G1 X114.643 Y74.54 E10.03
G1 X114.84 Y74.733 E10.04376
G1 X115.172 Y75.114 E10.06897
G1 X115.537 Y75.747 E10.10542
G1 X115.657 Y76.024 E10.12049
G1 X115.722 Y76.185 E10.12915
G1 X115.792 Y76.374 E10.1392
G1 X115.933 Y76.878 E10.16531
G1 X116.034 Y77.401 E10.19189
G1 X116.042 Y77.445 E10.19412
G1 X116.333 Y79.071 E10.27653
G1 X116.883 Y81.726 E10.4118
G1 X117.518 Y84.403 E10.54906
G1 X118.224 Y87.043 E10.6854
G1 X119.006 Y89.669 E10.8221
G1 X119.867 Y92.288 E10.95964
G1 X120.785 Y94.833 E11.09462
G1 X121.794 Y97.401 E11.23227
G1 X123.05 Y100.334 E11.39145
G1 X123.086 Y100.424 E11.39629
G1 X123.209 Y100.737 E11.41306
G1 X123.244 Y100.829 E11.41798
G1 X123.869 Y102.576 E11.51054
G1 X124.001 Y103.064 E11.53577
G1 X124.055 Y103.567 E11.561
G1 X124.029 Y104.071 E11.58618
G1 X123.975 Y104.482 E11.60686
G1 X123.869 Y104.976 E11.63207
G1 X123.688 Y105.448 E11.65729
G1 X123.422 Y105.902 E11.68354
G1 X123.152 Y106.287 E11.707
G1 X123.114 Y106.341 E11.7103
G1 X121.265 Y108.866 E11.86643
G1 X121.052 Y109.17 E11.88495
G1 X121.026 Y109.206 E11.88717
G1 X120.215 Y110.329 E11.95628
G1 X120.163 Y110.399 E11.96063
G1 X119.589 Y111.15 E12.00779
G1 X119.412 Y111.363 E12.0216
G1 X119.081 Y111.726 E12.04611
G1 X117.282 Y113.764 E12.18173
G1 X115.523 Y115.871 E12.31867
G1 X113.797 Y118.063 E12.45786
G1 X113.118 Y118.949 E12.51355
G1 X113.066 Y119.016 E12.51778
G1 X112.714 Y119.451 E12.5457
G1 X112.593 Y119.591 E12.55493
G1 X112.432 Y119.768 E12.56687
G1 X112.397 Y119.807 E12.56948
G1 X111.536 Y120.723 E12.6322
G1 X111.495 Y120.765 E12.63513
G1 X110.451 Y121.836 E12.70975
G1 X110.387 Y121.9 E12.71426
G1 X109.873 Y122.398 E12.74997
G1 X109.8 Y122.466 E12.75495
G1 X109.555 Y122.689 E12.77148
G1 X109.489 Y122.748 E12.77589
G1 X108.229 Y123.833 E12.85885
G1 X107.336 Y124.612 E12.91797
G1 X107.316 Y124.63 E12.91931
G1 X106.324 Y125.481 E12.98452
G1 X106.099 Y125.656 E12.99874
G1 X105.613 Y126.003 E13.02853
G1 X105.18 Y126.264 E13.05376
G1 X104.61 Y126.482 E13.0842
G1 X104.412 Y126.537 E13.09445
G1 X103.916 Y126.634 E13.11967
G1 X103.411 Y126.651 E13.14488
G1 X102.909 Y126.588 E13.17012
G1 X102.307 Y126.4 E13.20158
G1 X102.097 Y126.311 E13.21296
G1 X101.649 Y126.078 E13.23815
G1 X101.243 Y125.777 E13.26337
G1 X100.884 Y125.409 E13.28902
G1 X100.708 Y125.197 E13.30277
G1 X100.63 Y125.1 E13.30898
G1 X98.934 Y122.888 E13.44804
G1 X97.206 Y120.762 E13.58472
G1 X95.411 Y118.678 E13.72194
G1 X93.596 Y116.687 E13.85635
G1 X91.686 Y114.706 E13.99364
G1 X90.285 Y113.335 E14.09144
G1 X90.25 Y113.3 E14.09391
G1 X89.943 Y112.99 E14.11567
G1 X89.617 Y112.604 E14.14088
G1 X89.452 Y112.349 E14.15603
G1 X88.855 Y111.324 E14.21521
G1 X88.831 Y111.281 E14.21767
G1 X88.676 Y111.006 E14.23342
G1 X87.274 Y108.671 E14.3693
G1 X85.8 Y106.368 E14.50571
G1 X84.25 Y104.089 E14.64322
G1 X82.647 Y101.87 E14.77979
G1 X81.203 Y99.991 E14.89802
G1 X81.143 Y99.91 E14.90304
G1 X80.435 Y98.925 E14.96356
G1 X80.367 Y98.826 E14.96956
G1 X80.002 Y98.276 E15.00249
G1 X79.944 Y98.186 E15.00783
G1 X79.838 Y98.014 E15.01791
G1 X79.754 Y97.87 E15.02623
G1 X79.573 Y97.539 E15.04505
G1 X79.526 Y97.449 E15.05011
G1 X79.364 Y97.129 E15.06801
G1 X79.297 Y96.988 E15.0758
G1 X79.115 Y96.58 E15.09808
G1 X79.089 Y96.521 E15.1013
G1 X78.532 Y95.202 E15.17273
G1 X78.486 Y95.085 E15.17901
G1 X78.249 Y94.456 E15.21254
G1 X78.179 Y94.251 E15.22335
G1 X77.812 Y93.032 E15.28686
G1 X77.763 Y92.85 E15.29626
G1 X77.708 Y92.619 E15.30811
G1 X77.679 Y92.486 E15.3149
G1 X77.548 Y91.809 E15.3493
G1 X77.533 Y91.726 E15.35351
G1 X77.406 Y90.963 E15.3921
G1 X77.395 Y90.89 E15.39578
G1 X77.327 Y90.413 E15.41982
G1 X77.315 Y90.321 E15.42445
G1 X77.181 Y89.139 E15.4838
G1 X76.834 Y86.416 E15.62075
G1 X76.412 Y83.726 E15.7566
G1 X76.251 Y82.865 E15.8003
G1 X76.244 Y82.83 E15.80208
G1 X75.998 Y81.43 E15.87299
G1 X75.951 Y80.956 E15.89676
G1 X75.941 Y80.554 E15.91682
G1 X75.982 Y79.957 E15.94667
G1 X76.054 Y79.517 E15.96892
G1 X76.126 Y79.189 E15.98567
G1 X76.249 Y78.74 E16.0089
G1 X76.32 Y78.513 E16.02076
G1 X76.497 Y78.015 E16.04713
G1 X76.78 Y77.42 E16.08
G1 X77.115 Y76.871 E16.11209
G1 X77.367 Y76.516 E16.13381
G1 X77.72 Y76.083 E16.16168
G1 X77.818 Y75.968 E16.16922
G1 X77.966 Y75.803 E16.18028
G1 F1500 E9.68028
;MESH:rabbit.stl
G0 F3600 X79.402 Y78.013
G0 X80.365 Y78.86
G0 X104.269 Y102.087
G0 X105.029 Y103.132
G0 X105.381 Y106.401
G0 X105.307 Y106.336
;TYPE:WALL-INNER
G1 F1500 E16.18028
G1 F1800 X105.268 Y105.046 E16.24466
G1 X105.219 Y104.366 E16.27868
G1 X105.174 Y103.865 E16.30377
G1 X104.992 Y103.148 E16.34068
G1 X104.722 Y102.656 E16.36868
G1 X104.246 Y102.118 E16.40452
G1 X103.695 Y101.785 E16.43664
G1 X103.522 Y101.784 E16.44527
G1 X103.371 Y101.724 E16.45337
G1 X102.669 Y101.705 E16.48841
G1 X101.842 Y101.818 E16.53005
G1 X101.312 Y101.947 E16.55726
G1 X100.761 Y102.03 E16.58506
G1 X100.164 Y102.15 E16.61544
G1 X99.663 Y102.225 E16.64072
G1 X99.066 Y102.307 E16.67078
G1 X98.377 Y102.445 E16.70584
G1 X97.713 Y102.557 E16.73943
G1 X97.219 Y102.666 E16.76467
G1 X96.666 Y102.742 E16.79252
G1 X95.978 Y102.849 E16.82726
G1 X95.113 Y102.859 E16.87042
G1 X94.412 Y102.886 E16.90542
G1 X93.774 Y102.853 E16.93729
G1 X92.535 Y102.75 E16.99932
G1 X92.093 Y102.674 E17.02169
G1 X91.506 Y102.54 E17.05173
G1 X90.81 Y102.314 E17.08824
G1 X90.313 Y102.134 E17.11461
G1 X89.813 Y101.934 E17.14148
G1 X89.101 Y101.599 E17.18073
G1 X88.664 Y101.368 E17.20539
G1 X88.02 Y100.976 E17.24301
G1 X87.534 Y100.631 E17.27274
G1 X87.002 Y100.232 E17.30592
G1 X86.468 Y99.823 E17.33948
G1 X86.022 Y99.451 E17.36845
G1 X85.383 Y98.868 E17.41161
G1 X84.65 Y98.162 E17.46238
G1 X84.09 Y97.516 E17.50503
G1 X83.798 Y97.126 E17.52934
G1 X83.371 Y96.505 E17.56694
G1 X83.073 Y96.04 E17.59449
G1 X82.755 Y95.436 E17.62855
G1 X82.56 Y94.98 E17.65329
G1 X82.137 Y94.022 E17.70554
G1 X81.942 Y93.529 E17.73199
G1 X81.773 Y93.052 E17.75723
G1 X81.645 Y92.588 E17.78125
G1 X81.446 Y91.954 E17.8144
G1 X81.35 Y91.482 E17.83843
G1 X81.201 Y90.654 E17.8804
G1 X81.081 Y89.888 E17.91908
G1 X81.045 Y89.404 E17.9433
G1 X81.118 Y87.328 E18.04693
G1 X81.189 Y86.826 E18.07223
G1 X81.273 Y86.282 E18.09969
G1 X81.559 Y85.01 E18.16473
G1 X81.686 Y84.674 E18.18266
G1 X81.882 Y83.922 E18.22143
G1 X82.036 Y83.489 E18.24435
G1 X82.147 Y83.208 E18.25943
G1 X82.037 Y82.667 E18.28697
G1 X81.267 Y82.275 E18.33008
G1 X80.706 Y82.01 E18.36103
G1 X80.227 Y81.697 E18.38958
G1 X80.072 Y81.532 E18.40087
G1 X79.835 Y81.057 E18.42736
G1 X79.737 Y80.773 E18.44235
G1 X79.731 Y80.513 E18.45532
G1 X79.807 Y80.059 E18.47829
G1 X79.938 Y79.621 E18.50109
G1 X80.054 Y79.311 E18.51761
G1 X80.352 Y78.845 E18.5452
G1 X80.726 Y78.423 E18.57334
G1 X80.834 Y78.283 E18.58216
G1 X81.16 Y77.988 E18.60409
G1 X81.501 Y77.755 E18.6247
G1 X81.931 Y77.53 E18.64891
G1 X82.41 Y77.362 E18.67423
G1 X83.071 Y77.215 E18.70802
G1 X83.118 Y77.194 E18.71058
G1 X83.967 Y77.208 E18.75295
G1 X84.461 Y77.3 E18.77802
G1 X84.946 Y77.38 E18.80254
G1 X85.503 Y77.548 E18.83157
G1 X86.022 Y77.774 E18.85981
G1 X86.502 Y78.013 E18.88656
G1 X87.087 Y78.278 E18.9186
G1 X87.405 Y78.484 E18.9375
G1 X87.819 Y78.544 E18.95837
G1 X88.417 Y78.246 E18.99171
G1 X88.892 Y78.064 E19.01708
G1 X89.411 Y77.928 E19.04385
G1 X89.973 Y77.806 E19.07254
G1 X90.51 Y77.678 E19.10008
G1 X91.035 Y77.542 E19.12714
G1 X91.409 Y77.451 E19.14634
G1 X92.039 Y77.362 E19.17809
G1 X92.687 Y77.209 E19.2113
G1 X93.076 Y77.141 E19.23101
G1 X94.322 Y77.134 E19.29317
G1 X95.136 Y77.179 E19.33384
G1 X95.347 Y77.21 E19.34448
G1 X96.204 Y77.195 E19.38725
G1 X96.523 Y77.24 E19.40332
G1 X97.48 Y77.208 E19.45109
G1 X97.655 Y77.244 E19.46
G1 X98.369 Y77.27 E19.49565
G1 X98.839 Y77.336 E19.51933
G1 X102.232 Y77.321 E19.68861
G1 X102.988 Y77.351 E19.72635
G1 X104.427 Y77.304 E19.79818
G1 X104.643 Y77.266 E19.80912
G1 X105.325 Y77.266 E19.84315
G1 X105.754 Y77.359 E19.86505
G1 X105.83 Y77.375 E19.86892
G1 X105.884 Y77.402 E19.87194
G1 X105.914 Y77.431 E19.87402
G1 X105.948 Y77.5 E19.87786
G1 X105.946 Y77.605 E19.8831
G1 X105.923 Y77.679 E19.88696
G1 X105.779 Y78.136 E19.91087
G1 X105.626 Y78.5 E19.93057
G1 X105.491 Y78.67 E19.9414
G1 X105.182 Y78.932 E19.96161
G1 X104.716 Y79.166 E19.98762
